!!!!SEGMENT: pl-gd--ee-1638--006-020_marenzio-luca--il-quinto-libro-de-madrigalia-a-cinque-voci-occhi-miei-che-miraste.krn
!!!cenid: 15xx:902
!!!COM: Marenzio, Luca
!!!COM-rismID:
!!!CDT: ~1553-1599/08/22
!!!CNT: Italian
!!!GTL: Il Quinto libro de madrigalia a cinque voci
!!!OTL: Occhi miei che miraste
!!!OMV: 020
!!!PDT: 1585
!!!AGN:
!!!SMS-siglum: PL-GD
!!!SMS-shelfmark: Ee 1638
!!!SMS-variant:
!!!SMS-altvar:
!!!SMS-shelfwork: 006-020 G
!!!NIFC-rismSourceID: 990039296
!!!NIFC-islandoraID: pl-gd:57883
!!!URL-pdf-islandora: https://repozytorium.nifc.pl/islandora/object/pl-gd%3A57883/datastream/PDF/view
!!!URL-scan: https://polish.musicsources.pl/pl/lokalizacje/galeria/klocki-introligatorskie/655 @EN{Scan on Polish Music Herritage in Open Access Website} @PL{Skany w portalu Dziedzictwo Muzyki Polskiej w otwartym dostępie}
!!!ONB-nifc: UWAGA: utwór na stronach: Canto: s. 688, Alto: s. 536, Tenore: s. 384, Bassus: s. 232, Quinto: s. 80.
!!!AIN: 1 alto 1 bass 2 soprn 1 tenor
!!!key: d
**kern	**text	**kern	**text	**kern	**text	**kern	**text	**kern	**text
*part5	*part5	*part4	*part4	*part3	*part3	*part2	*part2	*part1	*part1
*staff5	*staff5	*staff4	*staff4	*staff3	*staff3	*staff2	*staff2	*staff1	*staff1
*I"Quinto	*	*I"Basso	*	*I"Tenore	*	*I"Alto	*	*I"Canto	*
*I'V 5	*	*I'B	*	*I'T	*	*I'A	*	*I'C	*
*Isoprn	*	*Ibass	*	*Itenor	*	*Ialto	*	*Isoprn	*
*ICvox	*	*ICvox	*	*ICvox	*	*ICvox	*	*ICvox	*
*clefG2	*	*clefF3	*	*clefC3	*	*clefC2	*	*clefG2	*
*k[b-]	*	*k[b-,B-]	*	*k[b-]	*	*k[b-]	*	*k[b-]	*
*d:	*	*d:	*	*d:	*	*d:	*	*d:	*
*M2/1	*	*M2/1	*	*M2/1	*	*M2/1	*	*M2/1	*
*met(C)	*	*met(C)	*	*met(C)	*	*met(C)	*	*met(C)	*
=1-	=1-	=1-	=1-	=1-	=1-	=1-	=1-	=1-	=1-
!!LO:TX:a:i:t=Seconda parte&colon;
!	!	!LO:TX:b:i:t=Occhi miei	!	!	!	!	!	!	!
1b-	Oc-	00r	.	1G	Oc-	1g	OC-	1dd	Oc-
1b-	-chi	.	.	1G	-chi	1g	-chi	1dd	-chi
=2-	=2-	=2-	=2-	=2-	=2-	=2-	=2-	=2-	=2-
1a	miei	.	.	1d	miei	1f#X	miei	1dd	miei
4r	.	.	.	4r	.	4r	.	4r	.
4.dd\	Che	.	.	4.B-/	Che	4.b-\	Che	4.ff\	Che
8cc\	mir-	.	.	8c/	mir-	8g\	mir	8ee\	mir-
4b-/	-aſ-	.	.	4G/	-aſ-	4g\	aſ-	4dd\	-aſ-
=3-	=3-	=3-	=3-	=3-	=3-	=3-	=3-	=3-	=3-
4a/	-ti	00r	.	4A/	-ti	4e/	-te	4cc\	-ti
2ff\	ſi	.	.	2d\	ſi	2fny\	ſi-	2a/	ſi
4dd\	bel	.	.	4B-/	bel	4b-\	-bel	4ff\	bel
2cc\	ſo-	.	.	2f\	ſo-	2a\	ſo-	2ff\	ſo-
2cc\	-le	.	.	4F/	-le	4a\	-le	4ff\	-le
.	.	.	.	4f\	E	4a\	E	4cc\	E
=4-	=4-	=4-	=4-	=4-	=4-	=4-	=4-	=4-	=4-
1r	.	.	.	4e\	nell'-	4g\	nell'-	4cc\	nell'-
.	.	.	.	4d\	-ar-	4f\	-ar-	4bn/	-ar-
!	!	!	!	!LO:SIC:v:t=custos c	!	!LO:SIC:v:t=custos e	!	!LO:SIC:v:t=custos cc	!
!	!	!	!	!LO:LB:g=original	!	!LO:LB:g=original	!	!LO:LB:g=original	!
.	.	.	.	8c/	-dor	8e/	-der	2cc\	-dor
.	.	.	.	8B-/	.	8d/	.	.	.
.	.	.	.	8A/	.	8c/	.	.	.
.	.	.	.	8G/	.	8B-/	.	.	.
4r	.	.	.	4F/	.	4A/	.	4r	.
4ff\	E	.	.	4F/	go-	4A/	.	4aa\	E
4ee\	nell'	.	.	2G/	-deſ-	2B-/	god-	4gg\	nell'
4dd\	ar-	.	.	.	.	.	.	4ff\	ar-
!LO:SIC:v:t=custos cc	!	!	!	!	!	!	!	!	!
!LO:LB:g=original	!	!	!	!	!	!	!	!	!
=5-	=5-	=5-	=5-	=5-	=5-	=5-	=5-	=5-	=5-
8cc\	-dor	00r	.	4A/	-ti	2c/	-ſti	2ee\	-dor
8b-/	.	.	.	.	.	.	.	.	.
8a/	.	.	.	4A/	goſ-	.	.	.	.
8g/	.	.	.	.	.	.	.	.	.
4f/	.	.	.	2B-/	-teſ-	4r	.	4r	.
4ff\	go-	.	.	.	.	4f\	E	4dd\	e
2ee\	-deſ-	.	.	4c/	-ti	4a\	nell'-	4cc\	nell'
.	.	.	.	4c/	go-	4g\	-ar-	4b-y/	ar-
2dd\	-ti	.	.	4.d\	-de-	8f\	-dor	8a/	-dor
.	.	.	.	.	.	8e\	.	8g/	.
.	.	.	.	.	.	8d/	.	8f/	.
.	.	.	.	8e\	.	8c/	.	8e/	.
=6-	=6-	=6-	=6-	=6-	=6-	=6-	=6-	=6-	=6-
4r	.	.	.	8f\	.	4B-/	.	4d/	go-
.	.	.	.	8d\	.	.	.	.	.
4b-/	go-	.	.	2g\	.	4G/	go-	4dd\	-de-
2a/	-deſ-	.	.	.	.	2d/	-ſte-	2dd\	-te
.	.	.	.	4f#X\	.	.	.	.	.
0bn	-ti	.	.	1g	-ſti	1G	-ſti	0dd	Quan-
=7-	=7-	=7-	=7-	=7-	=7-	=7-	=7-	=7-	=7-
.	.	1G	Quan-	1d	Quan-	1g	Qua(n)-	.	.
!	!	!	!	!LO:SIC:v:t=custos c	!	!	!	!	!
!	!	!	!	!LO:LB:g=original	!	!	!	!	!
1cc	Quan-	4C/	-do	4c/	-do	1g	-do	1ee	-do
.	.	4.c\	vol-	4.e\	vol-	.	.	.	.
.	.	8c\	-ſe	8e\	-ſe	.	.	.	.
.	.	4c\	le	4e\	le	.	.	.	.
=8-	=8-	=8-	=8-	=8-	=8-	=8-	=8-	=8-	=8-
4f/	-do	4.d\	luc'	4.fny\	luc'-	2r	.	4a/	vol-
!	!	!	!	!	!	!	!	!LO:SIC:v:t=custos dd	!
!	!	!	!	!	!	!	!	!LO:LB:g=original	!
4.ff\	vol-	.	.	.	.	.	.	4.dd\	-ſe
.	.	8c\	in	8e\	-in	.	.	.	.
.	.	4B-\	al-	1d	al-	2f\	Qua(n)-	.	.
8ff\	-ſe	.	.	.	.	.	.	8dd\	le
4ff\	le	4G\	-tra	.	.	.	.	4cc\	luc'
!	!	!	!	!	!	!LO:SIC:v:t=custos B	!	!	!
!	!	!	!	!	!	!LO:LB:g=original	!	!	!
4.gg\	luc'	1G	par-	.	.	4B-/	-do	4.b-/	in
.	.	.	.	.	.	4.b-\	vol-	.	.
8ff\	in	.	.	.	.	.	.	8a/	al-
4ee\	al-	.	.	2B-/	-tre	.	.	4g/	-tre
.	.	.	.	.	.	8b-\	-ſe	.	.
4dd\	-tre	.	.	.	.	4b-\	le	4f/	par-
!LO:SIC:v:t=custos cc	!	!	!	!	!	!	!	!	!
!LO:LB:g=original	!	!	!	!	!	!	!	!	!
=9-	=9-	=9-	=9-	=9-	=9-	=9-	=9-	=9-	=9-
2cc\	par-	1A	-te	2c/	par-	4.a\	luc'-	2e/	-te
.	.	.	.	.	.	8g\	-in	.	.
2cc\	-ti	.	.	2F/	-ti	4f\	al-	2a/	.
.	.	.	.	.	.	4e/	-tra	.	.
!	!	!LO:SIC:v:t=custos B	!	!	!	!	!	!	!
!	!	!LO:LB:g=original	!	!	!	!	!	!	!
4dd\	che	4B-\	che	1r	.	1d	par-	2r	.
4ee\	vi	4c\	vi	.	.	.	.	.	.
2ff\	tol-	2d\	tol-	.	.	.	.	4a/	che
.	.	.	.	.	.	.	.	4b-/	vi
=10-	=10-	=10-	=10-	=10-	=10-	=10-	=10-	=10-	=10-
1ee	-ſe	1c	-ſe	4e\	che	2g\	-te	2cc\	tol-
.	.	.	.	4f\	vi	.	.	.	.
.	.	.	.	1g	tol-	4e/	che	2cc\	-ſe
.	.	.	.	.	.	4f\	vi	.	.
1dd	il	4G\	che	.	.	2g\	tol-	4b-/	che
.	.	4A\	vi	.	.	.	.	4cc\	vi
.	.	2B-\	to'	2d\	-ſe	2f\	-ſe	2dd\	tol-
=11-	=11-	=11-	=11-	=11-	=11-	=11-	=11-	=11-	=11-
1cc	ſuo	2F/	ſe	00r	.	4r	.	4a/	-ſe
.	.	.	.	.	.	2a\	Il	2ff\	Il
.	.	2c\	Il	.	.	.	.	.	.
.	.	.	.	.	.	4g\	ſuo	4ee\	ſuo
!	!	!	!	!	!	!	!	!LO:SIC:v:t=custos dd	!
!	!	!	!	!	!	!	!	!LO:LB:g=original	!
2.b-y/	chia-	2G\	ſuo	.	.	2g\	chia-	8dd\	chia-
.	.	.	.	.	.	.	.	8cc\	.
.	.	.	.	.	.	.	.	8dd\	.
.	.	.	.	.	.	.	.	8ee\	.
.	.	2d\	chia-	.	.	4.f\	-ro	2ff\	.
2a/	-ro	.	.	.	.	.	.	.	.
.	.	.	.	.	.	16e/	.	.	.
.	.	.	.	.	.	16d/	.	.	.
!	!	!	!	!	!	!LO:SIC:v:t=custos c	!	!	!
!	!	!	!	!	!	!LO:LB:g=original	!	!	!
=12-	=12-	=12-	=12-	=12-	=12-	=12-	=12-	=12-	=12-
.	.	4A\	-ro	.	.	4c#X/	.	4ee\	-ro
4f/	ſplen-	4B-\	ſplen-	.	.	4d/	ſplen-	4dd\	ſplen-
2a/	-do-	2A\	-do-	.	.	2e/	-dor'-	2cc#X\	-do-
4a/	-re e	4D/	-re e	.	.	4f\	-e	4dd\	-re e
2b-/	le	2G\	le	.	.	2d/	le	8g/	le
.	.	.	.	.	.	.	.	8a/	.
.	.	.	.	.	.	.	.	8b-/	.
.	.	.	.	.	.	.	.	8cc#\	.
4g/	pa-	4G\	pa-	.	.	4B-/	pa-	8dd\	.
.	.	.	.	.	.	.	.	8ee\	.
=13-	=13-	=13-	=13-	=13-	=13-	=13-	=13-	=13-	=13-
4a/	-ro-	1F	-ro-	00r	.	1f	-rol-	4ff\	.
2b-/	.	.	.	.	.	.	.	4dd\	pa-
.	.	.	.	.	.	.	.	2ccny\	-ro-
4a/	.	.	.	.	.	.	.	.	.
1b-	-le	1BB-	-le	.	.	1f	-le	1dd	-le
!	!	!LO:SIC:v:t=custos B	!	!	!	!	!	!	!
!	!	!LO:LB:g=original	!	!	!	!	!	!	!
=14-	=14-	=14-	=14-	=14-	=14-	=14-	=14-	=14-	=14-
4dd\	Co-	4B-\	Co-	.	.	4f\	Co-	4ff\	co-
8dd\	-me	8B-\	-me	.	.	8f\	-me	8ff\	-me
8ee\	non	8c\	non	.	.	8cc\	non	8ee\	non
!LO:SIC:v:t=custos ff	!	!	!	!	!	!	!	!LO:SIC:v:t=custos dd	!
!LO:LB:g=original	!	!	!	!	!	!	!	!LO:LB:g=original	!
4ff#X\	vi	4d\	vi	.	.	4a\	vi	4dd\	vi
4gg\	chiu-	4G\	chiu-	.	.	4b-\	chiu-	4dd\	chiu-
1ee	-deſ-	1A	-deſ-	.	.	1a	-deſ-	1cc#X	-deſ-
=15-	=15-	=15-	=15-	=15-	=15-	=15-	=15-	=15-	=15-
1ee	-te	1A	-te	1r	.	1a	-te	1cc#	-te
4r	.	4r	.	2d\	Hor	4r	.	4r	.
4ff#X\	Hor	4D/	Hor	.	.	4a\	Hor	4dd\	Hor
1ff#\	dit'-	1G\	dit'	1d\	di-	1b-\	dit-	1dd\	di-
=16-	=16-	=16-	=16-	=16-	=16-	=16-	=16-	=16-	=16-
.	.	.	.	.	.	.	.	.	.
2ee\	ei	2C/	ei	2e#X\	-te ei	2g\	-'ei	2ccny\	-te ei
2.ffny\	vuo-	2.F/	vuo-	2.c/	vuo-	2.a\	vuo-	2.cc\	vuo-
4ff\	-le	4F/	-le	4c/	-le	4a\	-le	4cc\	-le
!	!	!	!	!LO:SIC:v:t=custos c	!	!LO:SIC:v:t=custos a	!	!	!
!	!	!	!	!LO:LB:g=original	!	!LO:LB:g=original	!	!	!
=17-	=17-	=17-	=17-	=17-	=17-	=17-	=17-	=17-	=17-
2ff\	fa-	2F/	fa-	2c/	fa-	2a\	fa-	2cc\	fa-
2dd\	-rui	2BB-/	-rui	2d\	-rui	2f\	-rui	2b-/	-rui
1ee-X	dol-	1E-X	dol-	1B-	dol-	1g	dol-	1b-	dol-
=18-	=18-	=18-	=18-	=18-	=18-	=18-	=18-	=18-	=18-
2eeny\	-ci	2Eny/	-ci	2G/	-ci	2g\	-ci	2b-/	-ci
2ee\	le	2C/	le	2G/	le	2g\	le	2cc\	le
2.dd\	lach-	2.D/	lach-	2.d\	lach-	2.f#X\	lach-	2.a/	lach-
4dd\	-ri-	4D/	-ri-	4d\	-ri-	4f#\	-ri-	4a/	-ri-
!	!	!LO:SIC:v:t=custos D	!	!	!	!	!	!	!
!	!	!LO:LB:g=original	!	!	!	!	!	!	!
=19-	=19-	=19-	=19-	=19-	=19-	=19-	=19-	=19-	=19-
1dd	-me	2D/	-me	2d\	-me	2fny\	-me	2a/	-me
.	.	2G\	ch'a-	2d\	ch'a-	2g\	ch'a-	2b-/	ch'a-
2r	.	2F/	-uol-	2f\	-uol-	2a\	-uol-	2cc\	-uol-
!	!	!	!	!	!	!	!	!LO:SIC:v:t=custos cc	!
!	!	!	!	!	!	!	!	!LO:LB:g=original	!
4r	.	2F/	-ſe	2f\	-ſe	2a\	-ſe	4cc\	-ſe
4cc\	E	.	.	.	.	.	.	4a/	E
!LO:SIC:v:t=custos dd	!	!	!	!	!	!	!	!	!
!LO:LB:g=original	!	!	!	!	!	!	!	!	!
=20-	=20-	=20-	=20-	=20-	=20-	=20-	=20-	=20-	=20-
4dd\	la	0r	.	0r	.	2r	.	4b-/	la
4ee\	ca-	.	.	.	.	.	.	4cc\	ca-
2.ff\	-te	.	.	.	.	4r	.	2.dd\	-te
.	.	.	.	.	.	4d/	E	.	.
.	.	.	.	.	.	4f\	la	.	.
8ee\	.	.	.	.	.	4g\	ca-	8cc\	.
8dd\	.	.	.	.	.	.	.	8b-\	.
4cc\	.	.	.	.	.	2.a\	-te-	4a/	.
4dd\	.	.	.	.	.	.	.	4b-/	.
=21-	=21-	=21-	=21-	=21-	=21-	=21-	=21-	=21-	=21-
1een	.	1r	.	1r	.	.	.	1cc	.
.	.	.	.	.	.	8g\	.	.	.
.	.	.	.	.	.	8f\	.	.	.
.	.	.	.	.	.	4e/	.	.	.
.	.	.	.	.	.	4f\	.	.	.
!	!	!	!	!	!	!LO:SIC:v:t=custos g	!	!	!
!	!	!	!	!	!	!LO:LB:g=original	!	!	!
2dd\	na-	4r	.	4r	.	2.g\	.	2b-/	na-
.	.	4.G\	che	4.B-/	che	.	.	.	.
4.b-\	-che	.	.	.	.	.	.	4.dd\	-che
.	.	8A\	gia-	8c/	gia-	.	.	.	.
.	.	2B-\	-mai	2d\	-mat	4f\	-na	.	.
8cc\	gia-	.	.	.	.	.	.	8ee\	gia-
=22-	=22-	=22-	=22-	=22-	=22-	=22-	=22-	=22-	=22-
2dd\	-mai	.	.	.	.	4.B-/	che	2ff\	-mai
.	.	4.G\	che	4.B-/	che	.	.	.	.
.	.	.	.	.	.	8cny/	gia-	.	.
4.dd\	che	.	.	.	.	2d/	-mat	4.b-/	che
.	.	8A\	gia-	8c/	gia-	.	.	.	.
.	.	2B-\	-mai	2d\	-mai	.	.	.	.
8ee\	gia-	.	.	.	.	.	.	8cc\	gia-
4ff\	-mat	.	.	.	.	4r	.	4dd\	-mat
4ee-X\	non	4E-X/	non	4g\	non	4G/	non	4b-/	no(n)
!	!	!	!	!LO:SIC:v:t=custos f	!	!	!	!	!
!	!	!	!	!LO:LB:g=original	!	!	!	!	!
2cc\	ſciol-	2F/	ſcio	2f\	ſciol-	2c/	ſciol-	2a/	ſciol-
=23-	=23-	=23-	=23-	=23-	=23-	=23-	=23-	=23-	=23-
1dd	-ſe	4BB-/	-ſe	4f\	-ſe	1B-	-ſe	4b-/	-ſe
.	.	4B-\	Poi	4f\	Poi	.	.	4dd\	Poi
!	!	!	!	!	!	!	!	!LO:SIC:v:t=custos ff	!
!	!	!	!	!	!	!	!	!LO:LB:g=original	!
.	.	4d\	che	4d\	che	.	.	4ff\	che
.	.	4c\	ri-	4eny\	ri-	.	.	4ee\	ri-
!	!	!LO:SIC:v:t=custos B	!	!	!	!	!	!	!
!	!	!LO:LB:g=original	!	!	!	!	!	!	!
1r	.	2B-\	-tor-	2f\	-tor-	1r	.	2dd\	-tor-
.	.	4A\	-na	4f\	-na	.	.	4cc\	-na
.	.	4G\	pi	4g\	pi	.	.	4b-/	piu
=24-	=24-	=24-	=24-	=24-	=24-	=24-	=24-	=24-	=24-
4r	.	1F	bel	0c	bel	4r	.	1a	bel
4ff\	Poi	.	.	.	.	4a\	Poi	.	.
!LO:SIC:v:t=custos aa	!	!	!	!	!	!	!	!	!
!LO:LB:g=original	!	!	!	!	!	!	!	!	!
4aa\	che	.	.	.	.	4cc\	che	.	.
4gg\	ri-	.	.	.	.	4b-\	ri-	.	.
2ff\	-tor-	2F/	che	.	.	2a\	-tor-	2r	.
4eeny\	-na	2G\	non	.	.	4g\	-na	1gg\	che
4dd\	piu	.	.	.	.	4f\	piu	.	.
=25-	=25-	=25-	=25-	=25-	=25-	=25-	=25-	=25-	=25-
1cc	bel	0.A	ſuo-	2r	.	1e	bel	.	.
.	.	.	.	1a	che	.	.	2ff\	non
2cc#X\	che	.	.	.	.	2e/	che	2ee\	ſuo-
2dd\	non	.	.	2f\	non	2a\	non	2.dd\	.
=26-	=26-	=26-	=26-	=26-	=26-	=26-	=26-	=26-	=26-
1ee	ſuo-	.	.	1e	ſuo-	1a	ſuo-	.	.
.	.	.	.	.	.	.	.	8cc#X\	.
.	.	.	.	.	.	.	.	8bn\	.
.	.	.	.	.	.	.	.	2cc#X\	.
00ff#X	-le.	00D	-le.	00d	-le.	00a	-le.	00dd	-le.
=27-	=27-	=27-	=27-	=27-	=27-	=27-	=27-	=27-	=27-
.	.	.	.	.	.	.	.	.	.
=28-	=28-	=28-	=28-	=28-	=28-	=28-	=28-	=28-	=28-
.	.	.	.	.	.	.	.	.	.
1ryy	.	1ryy	.	1ryy	.	1ryy	.	1ryy	.
=||	=||	=||	=||	=||	=||	=||	=||	=||	=||
*-	*-	*-	*-	*-	*-	*-	*-	*-	*-
!!!system-decoration: s1,s2,s3,s4,s5
!!!ENC: Andrzej Gręziak
!!!END: 2022-06-10
!!!ENC: Urszula Świątek
!!!END: 2022-07-25
